brandFactory_export/3.Masa/Documento_Archivo MP4_3Masa.svg

<?xml version="1.0" encoding="UTF-8"?>
<svg width="24px" height="24px" viewBox="0 0 24 24" version="1.1" xmlns="http://www.w3.org/2000/svg" xmlns:xlink="http://www.w3.org/1999/xlink">
    <title>3.Masa/Documento_Archivo MP4_3Masa</title>
    <g id="Symbols" stroke="none" stroke-width="1" fill="none" fill-rule="evenodd">
        <g id="3.Masa/Documento_Archivo-MP4_3Masa" fill="#5CB615" fill-rule="nonzero">
            <path d="M16.2117647,-2.66453526e-13 C16.4907563,-2.66453526e-13 16.7495798,0.104201681 16.9478992,0.295798319 L23.3042017,6.44705882 C23.4386555,6.57478992 23.5159664,6.7394958 23.5663866,6.91092437 C23.6033613,6.99831933 23.6235294,7.09579832 23.6235294,7.19663866 L23.6235294,21.9630252 C23.6235294,22.8638655 22.8504202,23.6235294 21.9327731,23.6235294 L7.31428571,23.6235294 C6.41344538,23.6235294 5.62352941,22.8470588 5.62352941,21.9630252 L5.66386555,18.6352941 L2.90756303,18.6352941 C1.30084034,18.6319328 0.00336134476,17.3310924 2.19149143e-10,15.7277311 L2.19149143e-10,10.8168067 C2.19149143e-10,9.21008403 1.30084034,7.9092437 2.90420168,7.90588235 L5.62352941,7.90588235 L5.62352941,1.6605042 C5.62352941,0.789915966 6.4302521,-2.66453526e-13 7.31428571,-2.66453526e-13 L16.2117647,-2.66453526e-13 Z M14.7193277,9.36134454 L2.90420168,9.36134454 C2.10420168,9.36134454 1.45546219,10.010084 1.45546219,10.8134454 L1.45546219,15.7277311 C1.45546219,16.5277311 2.10420168,17.1798319 2.90420168,17.1798319 L14.7193277,17.1798319 C15.5193277,17.1798319 16.1680672,16.5277311 16.1680672,15.7277311 L16.1680672,10.8134454 C16.1680672,10.0134454 15.5193277,9.36134454 14.7193277,9.36134454 Z M3.41176471,11.0722689 L4.80672269,13.5394958 L6.2487395,11.0722689 L7.02521008,11.0722689 L7.02521008,15.4890756 L6.10084034,15.4890756 L6.10084034,12.9445378 L5.18319328,14.4806723 L4.40672269,14.4806723 L3.46218487,12.9176471 L3.46218487,15.4890756 L2.6184874,15.4890756 L2.6184874,11.0722689 L3.41176471,11.0722689 Z M9.50252101,11.0722689 C10.194958,11.0722689 10.6319328,11.1697479 10.9176471,11.4352941 C11.1563025,11.6537815 11.2739496,11.9966387 11.2739496,12.4672269 C11.2739496,12.9378151 11.1630252,13.2941176 10.9445378,13.5394958 C10.6857143,13.8285714 10.2857143,13.9663866 9.70420168,13.9663866 L8.99495798,13.9663866 L8.99495798,15.4890756 L7.98655462,15.4890756 L7.98655462,11.0722689 L9.50252101,11.0722689 Z M13.7042017,11.0689076 L12.7092437,13.7815126 L13.7310924,13.7815126 L13.7310924,12.7294118 L14.6554622,12.7294118 L14.6554622,13.7815126 L15.1731092,13.7815126 L15.1731092,14.4739496 L14.6554622,14.4739496 L14.6554622,15.4890756 L13.7310924,15.4890756 L13.7310924,14.4739496 L11.7882353,14.4739496 C11.7747899,14.4302521 11.7613445,14.3327731 11.7613445,14.2487395 C11.7613445,14.0672269 11.794958,13.8621849 11.8957983,13.5764706 L12.8134454,11.0689076 L13.7042017,11.0689076 Z M9.46218487,11.8016807 L8.99159664,11.8016807 L8.99159664,13.210084 L9.48571429,13.210084 C9.80840336,13.210084 9.94285714,13.1663866 10.0739496,13.0420168 C10.1915966,12.9243697 10.2487395,12.7394958 10.2487395,12.4806723 C10.2487395,12.2420168 10.1983193,12.0672269 10.0806723,11.9563025 C9.95966387,11.8453782 9.77142857,11.8016807 9.46218487,11.8016807 Z M16.6151261,2.00336134 L16.6151261,4.1210084 C16.6151261,4.91092437 16.8739496,5.57647059 17.3647059,6.05042017 C17.8621849,6.53109244 18.5613445,6.78319328 19.3915966,6.78319328 L21.5529412,6.78319328 L16.6151261,2.00336134 Z" id="Documento_Archivo-MP4_3Masa"></path>
        </g>
    </g>
</svg>

<svg width="24" height="24" viewBox="0 0 24 24" xmlns="http://www.w3.org/2000/svg"><path d="M16.212 0c.279 0 .538.104.736.296l6.356 6.151c.135.128.212.292.262.464a.735.735 0 01.058.286v14.766c0 .9-.774 1.66-1.691 1.66H7.314c-.9 0-1.69-.776-1.69-1.66l.04-3.328H2.908A2.913 2.913 0 010 15.728v-4.911a2.91 2.91 0 012.904-2.911h2.72V1.66C5.624.79 6.43 0 7.314 0h8.898zm-1.493 9.361H2.904c-.8 0-1.449.65-1.449 1.452v4.915c0 .8.65 1.452 1.45 1.452h11.814c.8 0 1.45-.652 1.45-1.452v-4.915c0-.8-.65-1.452-1.45-1.452zM3.412 11.072l1.395 2.467 1.442-2.467h.776v4.417h-.924v-2.544l-.918 1.536h-.776l-.945-1.563v2.571h-.844v-4.417h.794zm6.09 0c.693 0 1.13.098 1.416.363.238.219.356.562.356 1.032s-.111.827-.33 1.072c-.258.29-.658.427-1.24.427h-.709v1.523H7.987v-4.417h1.516zm4.202-.003l-.995 2.713h1.022v-1.053h.924v1.053h.518v.692h-.518v1.015h-.924v-1.015h-1.943a.934.934 0 01-.027-.225c0-.182.034-.387.135-.673l.917-2.507h.891zm-4.242.733h-.47v1.408h.494c.322 0 .457-.044.588-.168.118-.118.175-.303.175-.561 0-.239-.05-.414-.168-.525-.121-.11-.31-.154-.619-.154zm7.153-9.799v2.118c0 .79.259 1.455.75 1.93.497.48 1.196.732 2.027.732h2.16l-4.937-4.78z" fill="#5CB615" fill-rule="nonzero"/></svg>
